assets/icons/delete-2.svg

<svg width="20" height="20" viewBox="0 0 20 20" fill="none" xmlns="http://www.w3.org/2000/svg">
<path d="M16.25 4.58301L15.7336 12.9373C15.6016 15.0717 15.5357 16.1389 15.0007 16.9063C14.7361 17.2856 14.3956 17.6058 14.0006 17.8463C13.2017 18.333 12.1325 18.333 9.99392 18.333C7.8526 18.333 6.78192 18.333 5.98254 17.8454C5.58733 17.6044 5.24667 17.2837 4.98223 16.9037C4.4474 16.1352 4.38287 15.0664 4.25384 12.929L3.75 4.58301" stroke="currentColor" stroke-width="1.5" stroke-linecap="round"/>
<path d="M2.5 4.58268H17.5M13.3797 4.58268L12.8109 3.40912C12.433 2.62957 12.244 2.23978 11.9181 1.99669C11.8458 1.94277 11.7693 1.8948 11.6892 1.85327C11.3283 1.66602 10.8951 1.66602 10.0287 1.66602C9.14067 1.66602 8.69667 1.66602 8.32973 1.86112C8.24842 1.90436 8.17082 1.95427 8.09774 2.01032C7.76803 2.26327 7.58386 2.66731 7.21551 3.4754L6.71077 4.58268" stroke="currentColor" stroke-width="1.5" stroke-linecap="round"/>
<path d="M7.91797 13.75V8.75" stroke="currentColor" stroke-width="1.5" stroke-linecap="round"/>
<path d="M12.082 13.75V8.75" stroke="currentColor" stroke-width="1.5" stroke-linecap="round"/>
</svg>

<svg xmlns="http://www.w3.org/2000/svg" width="20" height="20" fill="none" viewBox="0 0 20 20"><path stroke="currentColor" stroke-linecap="round" stroke-width="1.5" d="m16.25 4.583-.516 8.354c-.132 2.135-.198 3.202-.733 3.97a3.35 3.35 0 0 1-1 .94c-.8.486-1.868.486-4.007.486-2.141 0-3.212 0-4.011-.488a3.3 3.3 0 0 1-1-.941c-.536-.769-.6-1.838-.73-3.975L3.75 4.583m-1.25 0h15m-4.12 0-.57-1.174c-.377-.78-.566-1.17-.892-1.412a2 2 0 0 0-.229-.144c-.36-.187-.794-.187-1.66-.187-.888 0-1.332 0-1.7.195a2 2 0 0 0-.231.15c-.33.252-.514.656-.882 1.464L6.71 4.583m1.208 9.167v-5m4.164 5v-5"/></svg>
